X: 1518
T: the Wind that Shakes the Barley
T: an gao.t a .bio.dgeas an t-orna.
R: reel
B: O'Neill's 1850 "Music of Ireland" #1518
O: F.O'Neill
Z: transcribed by John B. Walsh, walsh@math.ubc.ca 8/23/96
M: C|
L: 1/8
K: D
   B | A2AB AFED | B2BA BcdB | A2AB AFED | gfed [1 Bcd :| [2 B2d |]
|: e | f2fd g2ge | f2fd Bcde |[1 f2fd g2fg | afed Bcd :|[2 fafd gbge | afed Bcd !D.C.! ||
